X:9
T:T005B- Old Ireland Rejoice (Wild Geese variant -Moffat)
S:McLean's Scots tunes (c 1772) and Joyce's OIFMS #787
Q:1/4=160
L:1/4
M:3/4
K:D dorian
A/B/4c/4|ddc3/4A/4|d2c/d/|eed3/4c/4|c2c/4d/4e/|ff~e3/4d/4|\
ee~d3/4c/4|Aag3/4e/4|d2c3/4A/4|GAc3/4d/4|ege3/4d/4|cGA/B/|\
c3/2B/A/G/|FF/A/G/F/|EEF/G/|AA,C/E/|D2||A/B/4c/4|d2A|dd2|\
e2c/d/|e2c/4d/4e/|f2f/g/|{f/}e2e/f/|d2A|d2c|A2c|g2e/d/|\
c2G|c3/2B/A/G/|FFF/G/|AA/4B/4c/|EAA,|d2|]

